static/img/kroki/c3523a257dbeaf625931e17e5a994386.svg

<?xml version="1.0" encoding="us-ascii" standalone="no"?><svg xmlns="http://www.w3.org/2000/svg" xmlns:xlink="http://www.w3.org/1999/xlink" contentStyleType="text/css" height="374px" preserveAspectRatio="none" style="width:333px;height:374px;" version="1.1" viewBox="0 0 333 374" width="333px" zoomAndPan="magnify"><defs/><g><!--class azure_network_virtual_appliance--><g id="elem_azure_network_virtual_appliance"><rect codeLine="23" fill="#3D176E" height="39.7891" id="azure_network_virtual_appliance" rx="2.5" ry="2.5" style="stroke:#000D19;stroke-width:0.5;" width="319" x="7" y="328.58"/><ellipse cx="22" cy="348.4745" fill="#ADD1B2" rx="11" ry="11" style="stroke:#181818;stroke-width:1.0;"/><path d="M24.9688,354.1152 Q24.3906,354.412 23.75,354.5527 Q23.1094,354.7089 22.4063,354.7089 Q19.9063,354.7089 18.5781,353.0683 Q17.2656,351.412 17.2656,348.287 Q17.2656,345.162 18.5781,343.5058 Q19.9063,341.8495 22.4063,341.8495 Q23.1094,341.8495 23.75,342.0058 Q24.4063,342.162 24.9688,342.4589 L24.9688,345.1777 Q24.3438,344.5995 23.75,344.3339 Q23.1563,344.0527 22.5313,344.0527 Q21.1875,344.0527 20.5,345.1308 Q19.8125,346.1933 19.8125,348.287 Q19.8125,350.3808 20.5,351.4589 Q21.1875,352.5214 22.5313,352.5214 Q23.1563,352.5214 23.75,352.2558 Q24.3438,351.9745 24.9688,351.3964 L24.9688,354.1152 Z " fill="#000000"/><text fill="#D9B8FF" font-family="Helvetica" font-size="17" lengthAdjust="spacing" textLength="277" x="41" y="354.3598">azure_network_virtual_appliance</text></g><!--class microsoft_resource--><g id="elem_microsoft_resource"><rect codeLine="26" fill="#3D176E" height="39.7891" id="microsoft_resource" rx="2.5" ry="2.5" style="stroke:#000D19;stroke-width:0.5;" width="200" x="66.5" y="167.79"/><ellipse cx="81.5" cy="187.6845" fill="#ADD1B2" rx="11" ry="11" style="stroke:#181818;stroke-width:1.0;"/><path d="M84.4688,193.3252 Q83.8906,193.622 83.25,193.7627 Q82.6094,193.9189 81.9063,193.9189 Q79.4063,193.9189 78.0781,192.2783 Q76.7656,190.622 76.7656,187.497 Q76.7656,184.372 78.0781,182.7158 Q79.4063,181.0595 81.9063,181.0595 Q82.6094,181.0595 83.25,181.2158 Q83.9063,181.372 84.4688,181.6689 L84.4688,184.3877 Q83.8438,183.8095 83.25,183.5439 Q82.6563,183.2627 82.0313,183.2627 Q80.6875,183.2627 80,184.3408 Q79.3125,185.4033 79.3125,187.497 Q79.3125,189.5908 80,190.6689 Q80.6875,191.7314 82.0313,191.7314 Q82.6563,191.7314 83.25,191.4658 Q83.8438,191.1845 84.4688,190.6064 L84.4688,193.3252 Z " fill="#000000"/><text fill="#D9B8FF" font-family="Helvetica" font-size="17" lengthAdjust="spacing" textLength="158" x="100.5" y="193.5698">microsoft_resource</text></g><!--class resource--><g id="elem_resource"><rect codeLine="29" fill="#3D176E" height="39.7891" id="resource" rx="2.5" ry="2.5" style="stroke:#000D19;stroke-width:0.5;" width="113" x="110" y="7"/><ellipse cx="125" cy="26.8945" fill="#ADD1B2" rx="11" ry="11" style="stroke:#181818;stroke-width:1.0;"/><path d="M127.9688,32.5352 Q127.3906,32.832 126.75,32.9727 Q126.1094,33.1289 125.4063,33.1289 Q122.9063,33.1289 121.5781,31.4883 Q120.2656,29.832 120.2656,26.707 Q120.2656,23.582 121.5781,21.9258 Q122.9063,20.2695 125.4063,20.2695 Q126.1094,20.2695 126.75,20.4258 Q127.4063,20.582 127.9688,20.8789 L127.9688,23.5977 Q127.3438,23.0195 126.75,22.7539 Q126.1563,22.4727 125.5313,22.4727 Q124.1875,22.4727 123.5,23.5508 Q122.8125,24.6133 122.8125,26.707 Q122.8125,28.8008 123.5,29.8789 Q124.1875,30.9414 125.5313,30.9414 Q126.1563,30.9414 126.75,30.6758 Q127.3438,30.3945 127.9688,29.8164 L127.9688,32.5352 Z " fill="#000000"/><text fill="#D9B8FF" font-family="Helvetica" font-size="17" lengthAdjust="spacing" textLength="71" x="144" y="32.7798">resource</text></g><!--reverse link microsoft_resource to azure_network_virtual_appliance--><g id="link_microsoft_resource_azure_network_virtual_appliance"><path codeLine="32" d="M166.5,225.84 C166.5,256.36 166.5,297.69 166.5,328.25 " fill="none" id="microsoft_resource-backto-azure_network_virtual_appliance" style="stroke:#FFAF37;stroke-width:2.0;"/><polygon fill="none" points="166.5,207.84,160.5,225.84,172.5,225.84,166.5,207.84" style="stroke:#FFAF37;stroke-width:2.0;"/></g><!--reverse link resource to microsoft_resource--><g id="link_resource_microsoft_resource"><path codeLine="33" d="M166.5,65.05 C166.5,95.57 166.5,136.9 166.5,167.46 " fill="none" id="resource-backto-microsoft_resource" style="stroke:#FFAF37;stroke-width:2.0;"/><polygon fill="none" points="166.5,47.05,160.5,65.05,172.5,65.05,166.5,47.05" style="stroke:#FFAF37;stroke-width:2.0;"/></g><!--SRC=[XT1DRy8m30RWUtz59Cv8PMWhIBi0qhHTq3HshqpZqAXjN3ak2BRzzut1fj3oSRKVsQ-TMuqAgrgsgi9gYUmZNrXN0qEb9ioqcL59h7h6W1acxUOJERa9vb2XUiPoZM8pQ8ltt6Q5G-_LNT2QGbQic1gd3-E5mVcV5Ze9rAm4xoSYR9UDO116ZvSZOzgoFRGtr8Fa0JkCM2CVIHp7UZ1kavkhhjxzBnPsXseGFcrEWfsOdHM_wchAlGX2TWxzwr_C-0fQMxTIzq7jxP297V99VP63firU6oXzkCOBCf9iQvnrhiBnI9laB7wvXADi_pe5kuOnTIWRuY9TMvO6oXJgkhJWCbGVKVHrf9NDc3mPIHazDNpQFQsTiO-V_Nx_rhwenRjpecy0]--></g></svg>

<svg xmlns="http://www.w3.org/2000/svg" width="333" height="374" viewBox="0 0 333 374"><rect width="319" height="39.789" x="7" y="328.58" fill="#3D176E" rx="2.5" ry="2.5" style="stroke:#000d19;stroke-width:.5"/><circle cx="22" cy="348.474" r="11" fill="#ADD1B2" style="stroke:#181818;stroke-width:1"/><path d="M24.969 354.115q-.578.297-1.219.438-.64.156-1.344.156-2.5 0-3.828-1.64-1.312-1.657-1.312-4.782t1.312-4.781q1.328-1.656 3.828-1.656.703 0 1.344.156.656.156 1.219.453v2.719q-.625-.579-1.219-.844-.594-.281-1.219-.281-1.343 0-2.031 1.078-.687 1.062-.687 3.156t.687 3.172q.688 1.062 2.031 1.062.625 0 1.219-.265.594-.281 1.219-.86z"/><text x="41" y="354.36" fill="#D9B8FF" font-family="Helvetica" font-size="17" textLength="277">azure_network_virtual_appliance</text><rect width="200" height="39.789" x="66.5" y="167.79" fill="#3D176E" rx="2.5" ry="2.5" style="stroke:#000d19;stroke-width:.5"/><circle cx="81.5" cy="187.685" r="11" fill="#ADD1B2" style="stroke:#181818;stroke-width:1"/><path d="M84.469 193.325q-.578.297-1.219.438-.64.156-1.344.156-2.5 0-3.828-1.64-1.312-1.657-1.312-4.782t1.312-4.781q1.328-1.656 3.828-1.656.703 0 1.344.156.656.156 1.219.453v2.719q-.625-.578-1.219-.844-.594-.281-1.219-.281-1.344 0-2.031 1.078-.687 1.062-.687 3.156t.687 3.172q.688 1.062 2.031 1.062.625 0 1.219-.265.594-.281 1.219-.86z"/><text x="100.5" y="193.57" fill="#D9B8FF" font-family="Helvetica" font-size="17" textLength="158">microsoft_resource</text><rect width="113" height="39.789" x="110" y="7" fill="#3D176E" rx="2.5" ry="2.5" style="stroke:#000d19;stroke-width:.5"/><circle cx="125" cy="26.895" r="11" fill="#ADD1B2" style="stroke:#181818;stroke-width:1"/><path d="M127.969 32.535q-.578.297-1.219.438-.64.156-1.344.156-2.5 0-3.828-1.64-1.312-1.657-1.312-4.782t1.312-4.781q1.328-1.656 3.828-1.656.703 0 1.344.156.656.156 1.219.453v2.719q-.625-.578-1.219-.844-.594-.281-1.219-.281-1.344 0-2.031 1.078-.687 1.062-.687 3.156t.687 3.172q.688 1.062 2.031 1.062.625 0 1.219-.265.594-.281 1.219-.86z"/><text x="144" y="32.78" fill="#D9B8FF" font-family="Helvetica" font-size="17" textLength="71">resource</text><path fill="none" d="M166.5 225.84v102.41m0-120.41-6 18h12zm0-142.79v102.41m0-120.41-6 18h12z" style="stroke:#ffaf37;stroke-width:2"/></svg>
